X:37
T: Monroebillia
C: Mike Compton
S: MandoZine TablEdit Archives
Z: TablEdited by Mike Stangeland for MandoZine
L: 1/8
Q: 470
M: 4/4
K: A
 z6 A=c | "A"ca ac' a2 e2 | "G"=ge =gb "A"a=g ef | "G"=g2 =ga "D"f=g fd | "E"[e2e2] [e2e2] [e3e3]=c |
 "A"ca ac' a2 e2 | "G"=g=g =gb "A"a=g AB | "C"=cA =cB "E"A=G E=G | "A"[A=G][AA] [AA][AA] [A2A2] [AA]=c |
 "A"ca ac' a2 e2 | "G"=ge =gb "A"a=g ef | "G"=g=g =ga "D"fa fd | "E"[e2e2] [e2e2] [e4e4] |
 "A"ca ac' a2 e2 | "G"=ge =gb "A"a=g AB | "C"=cA =cB "E"A=G E=G | "A"[A=G][AA] [AA][AA] [A2A2] B=c |
 |: "A"cA =cB AA B=c | ca aa a2 B=c | cA =cB AF DF | "G"=GD FD "E"EE E=c | "A"cA =cB AA B=c |
 ca aa ac A2 | "E"[ee][ee] [ee]f ec BG |1 [AA]"A"[AA] [AA][AA] [A2A2] B=c :|2 [AA]"A"[AA] [AA][AA] [A2A2] A=c |
 "A"ca ac' a2 e2 | "G"=ge =gb "A"a=g ef | "G"=g2 =ga "D"f=g fd | "E"[e2e2] [e2e2] [e3e3]=c |
 "A"ca ac' a2 e2 | "G"=g=g =gb "A"a=g e2 | "C"B=c B=c "E"A=G E=G | "A"[A=G][AA] [AA][AA] [A2A2] [AA]=c |
 "A"ca ac' a2 e2 | "G"=ge =gb "A"a=g ef | "G"=g=g =ga "D"fa fd | "E"[e2e2] [e2e2] [e4e4] |
 "A"ca ac' a2 e2 | "G"=ge =gb "A"a=g AB | "C"=cA =cB "E"A=G E=G | "A"[A=G][AA] [AA][AA] [A2A2] =cB |
 |: "A"A=c BA =cB A=c | BA B=c ^ca aa | =cB A=c BA EF | "G"=GD FD "E"EE E=c | "A"cA =cB A2 B=c |
 ca aa aa a2 |1 "E"A,C DF DE GB | "A"A2 [AA][AA] [AA][AA] B=c :|2 [e2e2] "E"ef ec Bc |
 "A"A8 |
